fs/scan_camera_24_regular.svg

<svg viewBox="0 0 24 24" fill="none" xmlns="http://www.w3.org/2000/svg" height="1em" width="1em">
  <path d="M3 6.25C3 4.45507 4.45507 3 6.25 3H8.25C8.66421 3 9 3.33579 9 3.75C9 4.16421 8.66421 4.5 8.25 4.5H6.25C5.2835 4.5 4.5 5.2835 4.5 6.25V8.25C4.5 8.66421 4.16421 9 3.75 9C3.33579 9 3 8.66421 3 8.25V6.25ZM15 3.75C15 3.33579 15.3358 3 15.75 3H17.75C19.5449 3 21 4.45507 21 6.25V8.25C21 8.66421 20.6642 9 20.25 9C19.8358 9 19.5 8.66421 19.5 8.25V6.25C19.5 5.2835 18.7165 4.5 17.75 4.5H15.75C15.3358 4.5 15 4.16421 15 3.75ZM3.75 15C4.16421 15 4.5 15.3358 4.5 15.75V17.75C4.5 18.7165 5.2835 19.5 6.25 19.5H8.25C8.66421 19.5 9 19.8358 9 20.25C9 20.6642 8.66421 21 8.25 21H6.25C4.45507 21 3 19.5449 3 17.75V15.75C3 15.3358 3.33579 15 3.75 15ZM20.25 15C20.6642 15 21 15.3358 21 15.75V17.75C21 19.5449 19.5449 21 17.75 21H15.75C15.3358 21 15 20.6642 15 20.25C15 19.8358 15.3358 19.5 15.75 19.5H17.75C18.7165 19.5 19.5 18.7165 19.5 17.75V15.75C19.5 15.3358 19.8358 15 20.25 15ZM12 13C12.5523 13 13 12.5523 13 12C13 11.4477 12.5523 11 12 11C11.4477 11 11 11.4477 11 12C11 12.5523 11.4477 13 12 13ZM10.8484 7C10.3749 7 9.94207 7.26264 9.73033 7.67842L9.24249 9H8.66667C7.74619 9 7 9.59626 7 10.5V14.3636C7 15.2674 7.74619 16 8.66667 16H15.3333C16.2538 16 17 15.2674 17 14.3636V10.5C17 9.59626 16.2538 9 15.3333 9H14.7575L14.2697 7.67842C14.0579 7.26264 13.6251 7 13.1516 7H10.8484ZM12 14C10.8954 14 10 13.1046 10 12C10 10.8954 10.8954 10 12 10C13.1046 10 14 10.8954 14 12C14 13.1046 13.1046 14 12 14Z" fill="#212121"/>
</svg>

<svg viewBox="0 0 24 24" fill="none" xmlns="http://www.w3.org/2000/svg" height="1em" width="1em">
  <path d="M3 6.25A3.25 3.25 0 0 1 6.25 3h2a.75.75 0 0 1 0 1.5h-2A1.75 1.75 0 0 0 4.5 6.25v2a.75.75 0 0 1-1.5 0v-2Zm12-2.5a.75.75 0 0 1 .75-.75h2A3.25 3.25 0 0 1 21 6.25v2a.75.75 0 0 1-1.5 0v-2a1.75 1.75 0 0 0-1.75-1.75h-2a.75.75 0 0 1-.75-.75ZM3.75 15a.75.75 0 0 1 .75.75v2c0 .966.784 1.75 1.75 1.75h2a.75.75 0 0 1 0 1.5h-2A3.25 3.25 0 0 1 3 17.75v-2a.75.75 0 0 1 .75-.75Zm16.5 0a.75.75 0 0 1 .75.75v2A3.25 3.25 0 0 1 17.75 21h-2a.75.75 0 0 1 0-1.5h2a1.75 1.75 0 0 0 1.75-1.75v-2a.75.75 0 0 1 .75-.75ZM12 13a1 1 0 1 0 0-2 1 1 0 0 0 0 2Zm-1.152-6c-.473 0-.906.263-1.118.678L9.242 9h-.575C7.747 9 7 9.596 7 10.5v3.864C7 15.267 7.746 16 8.667 16h6.666c.92 0 1.667-.733 1.667-1.636V10.5c0-.904-.746-1.5-1.667-1.5h-.575l-.488-1.322A1.253 1.253 0 0 0 13.152 7h-2.304ZM12 14a2 2 0 1 1 0-4 2 2 0 0 1 0 4Z" fill="#212121"/>
</svg>
